X: 1198
T: The Lame Fisherman
M:C|
L:1/8
R:Reel
B:O'Neill's 1198
N:Collected by Ryan
Z:Transcribed by Trish O'Nei
K:D
(3ABc|d2(FG)A2(3def|  gfed fdBc| d2FGA2AB| AFEG FDDA|
d2FGA2(3def| gfed fdBc| d2FGA2de| faefd2||
(3efg| afbf afdf| gfed cd (3efg| afbf afdf| abag fd (3efg|
afbf afdf| gfed fdBc| dAFGA2(de)| faefd2||


